report_00007_2020-12-11T15:55:29.892Z/largest-contentful-paint/comparison/line/4_vs_5.svg

<svg width="640" height="500" xmlns="http://www.w3.org/2000/svg" xmlns:xlink="http://www.w3.org/1999/xlink"><path fill="#fff" d="M0 0h640v500H0z"/><defs><path id="d" stroke-width=".222" stroke="currentColor" d="M-1-1h2v2h-2z"/><path id="b" stroke-width=".222" stroke="currentColor" d="M0-1.33l-1.33 2h2.66z"/><path id="f" stroke-width=".222" stroke="currentColor" d="M0 1.33L1.265.411.782-1.067l-1.564-.009-.483 1.487z"/><use xlink:href="#b" id="c" stroke="currentColor" transform="rotate(180)"/><use xlink:href="#d" id="e" stroke="currentColor" transform="rotate(45)"/><circle id="a" stroke-width=".222" stroke="currentColor" cx="0" cy="0" r="1"/></defs><g fill="none" color="#000" stroke="currentColor"><path stroke="#000" d="M70.5 389.7h9m535.5 0h-9"/><text transform="translate(62.2 393.6)" stroke="none" fill="#000" font-family="Arial" font-size="12" text-anchor="end"><tspan>10000</tspan></text></g><g fill="none" color="#000" stroke="currentColor"><path stroke="#000" d="M70.5 334h9m535.5 0h-9"/><text transform="translate(62.2 337.9)" stroke="none" fill="#000" font-family="Arial" font-size="12" text-anchor="end"><tspan>12000</tspan></text></g><g fill="none" color="#000" stroke="currentColor"><path stroke="#000" d="M70.5 278.3h9m535.5 0h-9"/><text transform="translate(62.2 282.2)" stroke="none" fill="#000" font-family="Arial" font-size="12" text-anchor="end"><tspan>14000</tspan></text></g><g fill="none" color="#000" stroke="currentColor"><path stroke="#000" d="M70.5 222.6h9m535.5 0h-9"/><text transform="translate(62.2 226.5)" stroke="none" fill="#000" font-family="Arial" font-size="12" text-anchor="end"><tspan>16000</tspan></text></g><g fill="none" color="#000" stroke="currentColor"><path stroke="#000" d="M70.5 166.8h9m535.5 0h-9"/><text transform="translate(62.2 170.7)" stroke="none" fill="#000" font-family="Arial" font-size="12" text-anchor="end"><tspan>18000</tspan></text></g><g fill="none" color="#000" stroke="currentColor"><path stroke="#000" d="M70.5 111.1h9m535.5 0h-9"/><text transform="translate(62.2 115)" stroke="none" fill="#000" font-family="Arial" font-size="12" text-anchor="end"><tspan>20000</tspan></text></g><g fill="none" color="#000" stroke="currentColor"><path stroke="#000" d="M70.5 55.4h9m535.5 0h-9"/><text transform="translate(62.2 59.3)" stroke="none" fill="#000" font-family="Arial" font-size="12" text-anchor="end"><tspan>22000</tspan></text></g><g fill="none" color="#000" stroke="currentColor"><path stroke="#000" d="M70.5 428v-9m0-400.9v9"/><text transform="translate(70.5 449.9)" stroke="none" fill="#000" font-family="Arial" font-size="12" text-anchor="middle"><tspan>0</tspan></text></g><g fill="none" color="#000" stroke="currentColor"><path stroke="#000" d="M125.5 428v-9m0-400.9v9"/><text transform="translate(125.5 449.9)" stroke="none" fill="#000" font-family="Arial" font-size="12" text-anchor="middle"><tspan>10</tspan></text></g><g fill="none" color="#000" stroke="currentColor"><path stroke="#000" d="M180.5 428v-9m0-400.9v9"/><text transform="translate(180.5 449.9)" stroke="none" fill="#000" font-family="Arial" font-size="12" text-anchor="middle"><tspan>20</tspan></text></g><g fill="none" color="#000" stroke="currentColor"><path stroke="#000" d="M235.5 428v-9m0-400.9v9"/><text transform="translate(235.5 449.9)" stroke="none" fill="#000" font-family="Arial" font-size="12" text-anchor="middle"><tspan>30</tspan></text></g><g fill="none" color="#000" stroke="currentColor"><path stroke="#000" d="M290.5 428v-9m0-400.9v9"/><text transform="translate(290.5 449.9)" stroke="none" fill="#000" font-family="Arial" font-size="12" text-anchor="middle"><tspan>40</tspan></text></g><g fill="none" color="#000" stroke="currentColor"><path stroke="#000" d="M345.5 428v-9m0-400.9v9"/><text transform="translate(345.5 449.9)" stroke="none" fill="#000" font-family="Arial" font-size="12" text-anchor="middle"><tspan>50</tspan></text></g><g fill="none" color="#000" stroke="currentColor"><path stroke="#000" d="M400.5 428v-9m0-400.9v9"/><text transform="translate(400.5 449.9)" stroke="none" fill="#000" font-family="Arial" font-size="12" text-anchor="middle"><tspan>60</tspan></text></g><g fill="none" color="#000" stroke="currentColor"><path stroke="#000" d="M455.5 428v-9m0-400.9v9"/><text transform="translate(455.5 449.9)" stroke="none" fill="#000" font-family="Arial" font-size="12" text-anchor="middle"><tspan>70</tspan></text></g><g fill="none" color="#000" stroke="currentColor"><path stroke="#000" d="M510.5 428v-9m0-400.9v9"/><text transform="translate(510.5 449.9)" stroke="none" fill="#000" font-family="Arial" font-size="12" text-anchor="middle"><tspan>80</tspan></text></g><g fill="none" color="#000" stroke="currentColor"><path stroke="#000" d="M565.5 428v-9m0-400.9v9"/><text transform="translate(565.5 449.9)" stroke="none" fill="#000" font-family="Arial" font-size="12" text-anchor="middle"><tspan>90</tspan></text></g><path stroke="#000" d="M70.5 18.1V428H615V18.1H70.5z" fill="none" color="#000"/><text transform="translate(283.9 467.9)" stroke="none" fill="#000" font-family="Arial" font-size="12" text-anchor="end" color="#000"><tspan>pages+cached+noadtech</tspan></text><path stroke="#9400D3" d="M292.2 464h42.2M70.5 397l5.5 22.3h5.5l5.5.4 5.5-23.7 5.5-.2 5.5 24h5.5l5.5-.3h5.5l5.5-23.3 5.5.1 5.5 22.7 5.5.4h5.5l5.5-.2 5.5-23.4 5.5 23.7 5.5-23.2L175 419l5.5.8 5.5-.3 5.5-.2 5.5.6 5.5-.6H219l5.5-24.8 5.5 1.7 5.5 23.9 5.5-.2h5.5l5.5-.4 5.5.3 5.5-23.4 5.5 22.6 5.5.7 5.5-23.2 5.5-.2 5.5 23.4 5.5-23.4 5.5 23.2 5.5-23.3 5.5 23.2 5.5-23.1 5.5 23h5.5l5.5-22.8 5.5 23.1 5.5-.4 5.5.2 5.5-.1 5.5-23 5.5 23.3L373 396l5.5 23.3 5.5.2h5.5l5.5-.7 5.5.8 5.5-.4 5.5-22.6 5.5 22.7h5.5l5.5-.3 5.5.3 5.5.5 5.5-.1 5.5-23.3 5.5.6 5.5-.4 5.5 22.9 5.5-.2 5.5-23 5.5 23h5.5l5.5.3 5.5-23.2 5.5 23.1 5.5-23.3 5.5 23.3 5.5-23.2 5.5 23.5 5.5-23.4 5.5-.2 5.5.1 5.5 22.9 5.5-23 5.5 23.7 5.5-.6 5.5-.1L576.5 26l5.5 393.5 5.5-25.1 5.5 1.2 5.5 24.2 5.5-.4h5.5l5.5-23.3" fill="none" color="#000"/><text transform="translate(283.9 485.9)" stroke="none" fill="#000" font-family="Arial" font-size="12" text-anchor="end" color="#000"><tspan>pages+cached+noexternal</tspan></text><path stroke="#009E73" d="M292.2 482h42.2M70.5 396.5l5.5 20.8 5.5-20.8 5.5 22.9 5.5-2.1 5.5-.1 5.5 2.2 5.5-23.1 5.5-2 5.5.2 5.5 1.7 5.5-2 5.5 23 5.5.2 5.5 2.2 5.5.3 5.5-23.5 5.5-2.6 5.5 1 5.5 1.3 5.5.5 5.5-2.7 5.5 23.4 5.5 2.3 5.5-23.2 5.5 22.9 5.5-22.9 5.5.1 5.5-.4 5.5 23.8 5.5-2.6 5.5 2 5.5-2 5.5 2.2 5.5-25.3 5.5 25.2 5.5-22.8 5.5 20.6 5.5.2 5.5-21 5.5 21.2 5.5-21 5.5 22.8 5.5.1 5.5-1.8 5.5-.3 5.5-21.3 5.5 23.6 5.5.1 5.5-2.4 5.5-21.1h5.5l5.5 23 5.5-24.8 5.5 1.6 5.5 21.5 5.5-21.4 5.5 23.1 5.5-25 5.5 2 5.5 23.2 5.5-25.4 5.5-.3 5.5 25.3 5.5.8 5.5-25.5 5.5 22.8 5.5-21 5.5 23.4 5.5-23 5.5 21 5.5.1 5.5-21.3 5.5 23.1 5.5-.1 5.5-22.7 5.5-2.6 5.5 25.3 5.5-1.9 5.5-.2 5.5-23.1 5.5.2 5.5 25 5.5-1.7 5.5-.6 5.5-22.5 5.5 22.8 5.5-21 5.5 23.1 5.5-2 5.5 1.9 5.5.2 5.5-.1 5.5-2h5.5l5.5 2 5.5-2.2 5.5-20.9 5.5-2.2 5.5 23.1" fill="none" color="#000"/><text transform="translate(533.6 467.9)" stroke="none" fill="#000" font-family="Arial" font-size="12" text-anchor="end" color="#000"><tspan>score p10=2500</tspan></text><path stroke="#56B4E9" d="M541.9 464h42.2" fill="none" color="#000"/><g><text transform="translate(533.6 485.9)" stroke="none" fill="#000" font-family="Arial" font-size="12" text-anchor="end" color="#000"><tspan>score median=4000</tspan></text><path stroke="#E69F00" d="M541.9 482h42.2" fill="none" color="#000"/></g><g fill="none" color="#000" stroke="currentColor"><path stroke="#000" d="M70.5 18.1V428H615V18.1H70.5z"/></g></svg>

<?xml version="1.0" encoding="utf-8"  standalone="no"?>
<svg 
 width="640" height="500"
 viewBox="0 0 640 500"
 xmlns="http://www.w3.org/2000/svg"
 xmlns:xlink="http://www.w3.org/1999/xlink"
>

<title>Gnuplot</title>
<desc>Produced by GNUPLOT 5.4 patchlevel 0 </desc>

<g id="gnuplot_canvas">

<rect x="0" y="0" width="640" height="500" fill="#ffffff"/>
<defs>

	<circle id='gpDot' r='0.5' stroke-width='0.5' stroke='currentColor'/>
	<path id='gpPt0' stroke-width='0.222' stroke='currentColor' d='M-1,0 h2 M0,-1 v2'/>
	<path id='gpPt1' stroke-width='0.222' stroke='currentColor' d='M-1,-1 L1,1 M1,-1 L-1,1'/>
	<path id='gpPt2' stroke-width='0.222' stroke='currentColor' d='M-1,0 L1,0 M0,-1 L0,1 M-1,-1 L1,1 M-1,1 L1,-1'/>
	<rect id='gpPt3' stroke-width='0.222' stroke='currentColor' x='-1' y='-1' width='2' height='2'/>
	<rect id='gpPt4' stroke-width='0.222' stroke='currentColor' fill='currentColor' x='-1' y='-1' width='2' height='2'/>
	<circle id='gpPt5' stroke-width='0.222' stroke='currentColor' cx='0' cy='0' r='1'/>
	<use xlink:href='#gpPt5' id='gpPt6' fill='currentColor' stroke='none'/>
	<path id='gpPt7' stroke-width='0.222' stroke='currentColor' d='M0,-1.33 L-1.33,0.67 L1.33,0.67 z'/>
	<use xlink:href='#gpPt7' id='gpPt8' fill='currentColor' stroke='none'/>
	<use xlink:href='#gpPt7' id='gpPt9' stroke='currentColor' transform='rotate(180)'/>
	<use xlink:href='#gpPt9' id='gpPt10' fill='currentColor' stroke='none'/>
	<use xlink:href='#gpPt3' id='gpPt11' stroke='currentColor' transform='rotate(45)'/>
	<use xlink:href='#gpPt11' id='gpPt12' fill='currentColor' stroke='none'/>
	<path id='gpPt13' stroke-width='0.222' stroke='currentColor' d='M0,1.330 L1.265,0.411 L0.782,-1.067 L-0.782,-1.076 L-1.265,0.411 z'/>
	<use xlink:href='#gpPt13' id='gpPt14' fill='currentColor' stroke='none'/>
	<filter id='textbox' filterUnits='objectBoundingBox' x='0' y='0' height='1' width='1'>
	  <feFlood flood-color='#FFFFFF' flood-opacity='1' result='bgnd'/>
	  <feComposite in='SourceGraphic' in2='bgnd' operator='atop'/>
	</filter>
	<filter id='greybox' filterUnits='objectBoundingBox' x='0' y='0' height='1' width='1'>
	  <feFlood flood-color='lightgrey' flood-opacity='1' result='grey'/>
	  <feComposite in='SourceGraphic' in2='grey' operator='atop'/>
	</filter>
</defs>
<g fill="none" color="#FFFFFF" stroke="black" stroke-width="1.00" stroke-linecap="butt" stroke-linejoin="miter">
</g>
<g fill="none" color="black" stroke="currentColor" stroke-width="1.00" stroke-linecap="butt" stroke-linejoin="miter">
	<path stroke='black'  d='M70.5,389.7 L79.5,389.7 M615.0,389.7 L606.0,389.7  '/>	<g transform="translate(62.2,393.6)" stroke="none" fill="black" font-family="Arial" font-size="12.00"  text-anchor="end">
		<text><tspan font-family="Arial" > 10000</tspan></text>
	</g>
</g>
<g fill="none" color="black" stroke="currentColor" stroke-width="1.00" stroke-linecap="butt" stroke-linejoin="miter">
	<path stroke='black'  d='M70.5,334.0 L79.5,334.0 M615.0,334.0 L606.0,334.0  '/>	<g transform="translate(62.2,337.9)" stroke="none" fill="black" font-family="Arial" font-size="12.00"  text-anchor="end">
		<text><tspan font-family="Arial" > 12000</tspan></text>
	</g>
</g>
<g fill="none" color="black" stroke="currentColor" stroke-width="1.00" stroke-linecap="butt" stroke-linejoin="miter">
	<path stroke='black'  d='M70.5,278.3 L79.5,278.3 M615.0,278.3 L606.0,278.3  '/>	<g transform="translate(62.2,282.2)" stroke="none" fill="black" font-family="Arial" font-size="12.00"  text-anchor="end">
		<text><tspan font-family="Arial" > 14000</tspan></text>
	</g>
</g>
<g fill="none" color="black" stroke="currentColor" stroke-width="1.00" stroke-linecap="butt" stroke-linejoin="miter">
	<path stroke='black'  d='M70.5,222.6 L79.5,222.6 M615.0,222.6 L606.0,222.6  '/>	<g transform="translate(62.2,226.5)" stroke="none" fill="black" font-family="Arial" font-size="12.00"  text-anchor="end">
		<text><tspan font-family="Arial" > 16000</tspan></text>
	</g>
</g>
<g fill="none" color="black" stroke="currentColor" stroke-width="1.00" stroke-linecap="butt" stroke-linejoin="miter">
	<path stroke='black'  d='M70.5,166.8 L79.5,166.8 M615.0,166.8 L606.0,166.8  '/>	<g transform="translate(62.2,170.7)" stroke="none" fill="black" font-family="Arial" font-size="12.00"  text-anchor="end">
		<text><tspan font-family="Arial" > 18000</tspan></text>
	</g>
</g>
<g fill="none" color="black" stroke="currentColor" stroke-width="1.00" stroke-linecap="butt" stroke-linejoin="miter">
	<path stroke='black'  d='M70.5,111.1 L79.5,111.1 M615.0,111.1 L606.0,111.1  '/>	<g transform="translate(62.2,115.0)" stroke="none" fill="black" font-family="Arial" font-size="12.00"  text-anchor="end">
		<text><tspan font-family="Arial" > 20000</tspan></text>
	</g>
</g>
<g fill="none" color="black" stroke="currentColor" stroke-width="1.00" stroke-linecap="butt" stroke-linejoin="miter">
	<path stroke='black'  d='M70.5,55.4 L79.5,55.4 M615.0,55.4 L606.0,55.4  '/>	<g transform="translate(62.2,59.3)" stroke="none" fill="black" font-family="Arial" font-size="12.00"  text-anchor="end">
		<text><tspan font-family="Arial" > 22000</tspan></text>
	</g>
</g>
<g fill="none" color="black" stroke="currentColor" stroke-width="1.00" stroke-linecap="butt" stroke-linejoin="miter">
	<path stroke='black'  d='M70.5,428.0 L70.5,419.0 M70.5,18.1 L70.5,27.1  '/>	<g transform="translate(70.5,449.9)" stroke="none" fill="black" font-family="Arial" font-size="12.00"  text-anchor="middle">
		<text><tspan font-family="Arial" > 0</tspan></text>
	</g>
</g>
<g fill="none" color="black" stroke="currentColor" stroke-width="1.00" stroke-linecap="butt" stroke-linejoin="miter">
	<path stroke='black'  d='M125.5,428.0 L125.5,419.0 M125.5,18.1 L125.5,27.1  '/>	<g transform="translate(125.5,449.9)" stroke="none" fill="black" font-family="Arial" font-size="12.00"  text-anchor="middle">
		<text><tspan font-family="Arial" > 10</tspan></text>
	</g>
</g>
<g fill="none" color="black" stroke="currentColor" stroke-width="1.00" stroke-linecap="butt" stroke-linejoin="miter">
	<path stroke='black'  d='M180.5,428.0 L180.5,419.0 M180.5,18.1 L180.5,27.1  '/>	<g transform="translate(180.5,449.9)" stroke="none" fill="black" font-family="Arial" font-size="12.00"  text-anchor="middle">
		<text><tspan font-family="Arial" > 20</tspan></text>
	</g>
</g>
<g fill="none" color="black" stroke="currentColor" stroke-width="1.00" stroke-linecap="butt" stroke-linejoin="miter">
	<path stroke='black'  d='M235.5,428.0 L235.5,419.0 M235.5,18.1 L235.5,27.1  '/>	<g transform="translate(235.5,449.9)" stroke="none" fill="black" font-family="Arial" font-size="12.00"  text-anchor="middle">
		<text><tspan font-family="Arial" > 30</tspan></text>
	</g>
</g>
<g fill="none" color="black" stroke="currentColor" stroke-width="1.00" stroke-linecap="butt" stroke-linejoin="miter">
	<path stroke='black'  d='M290.5,428.0 L290.5,419.0 M290.5,18.1 L290.5,27.1  '/>	<g transform="translate(290.5,449.9)" stroke="none" fill="black" font-family="Arial" font-size="12.00"  text-anchor="middle">
		<text><tspan font-family="Arial" > 40</tspan></text>
	</g>
</g>
<g fill="none" color="black" stroke="currentColor" stroke-width="1.00" stroke-linecap="butt" stroke-linejoin="miter">
	<path stroke='black'  d='M345.5,428.0 L345.5,419.0 M345.5,18.1 L345.5,27.1  '/>	<g transform="translate(345.5,449.9)" stroke="none" fill="black" font-family="Arial" font-size="12.00"  text-anchor="middle">
		<text><tspan font-family="Arial" > 50</tspan></text>
	</g>
</g>
<g fill="none" color="black" stroke="currentColor" stroke-width="1.00" stroke-linecap="butt" stroke-linejoin="miter">
	<path stroke='black'  d='M400.5,428.0 L400.5,419.0 M400.5,18.1 L400.5,27.1  '/>	<g transform="translate(400.5,449.9)" stroke="none" fill="black" font-family="Arial" font-size="12.00"  text-anchor="middle">
		<text><tspan font-family="Arial" > 60</tspan></text>
	</g>
</g>
<g fill="none" color="black" stroke="currentColor" stroke-width="1.00" stroke-linecap="butt" stroke-linejoin="miter">
	<path stroke='black'  d='M455.5,428.0 L455.5,419.0 M455.5,18.1 L455.5,27.1  '/>	<g transform="translate(455.5,449.9)" stroke="none" fill="black" font-family="Arial" font-size="12.00"  text-anchor="middle">
		<text><tspan font-family="Arial" > 70</tspan></text>
	</g>
</g>
<g fill="none" color="black" stroke="currentColor" stroke-width="1.00" stroke-linecap="butt" stroke-linejoin="miter">
	<path stroke='black'  d='M510.5,428.0 L510.5,419.0 M510.5,18.1 L510.5,27.1  '/>	<g transform="translate(510.5,449.9)" stroke="none" fill="black" font-family="Arial" font-size="12.00"  text-anchor="middle">
		<text><tspan font-family="Arial" > 80</tspan></text>
	</g>
</g>
<g fill="none" color="black" stroke="currentColor" stroke-width="1.00" stroke-linecap="butt" stroke-linejoin="miter">
	<path stroke='black'  d='M565.5,428.0 L565.5,419.0 M565.5,18.1 L565.5,27.1  '/>	<g transform="translate(565.5,449.9)" stroke="none" fill="black" font-family="Arial" font-size="12.00"  text-anchor="middle">
		<text><tspan font-family="Arial" > 90</tspan></text>
	</g>
</g>
<g fill="none" color="black" stroke="currentColor" stroke-width="1.00" stroke-linecap="butt" stroke-linejoin="miter">
</g>
<g fill="none" color="black" stroke="currentColor" stroke-width="1.00" stroke-linecap="butt" stroke-linejoin="miter">
	<path stroke='black'  d='M70.5,18.1 L70.5,428.0 L615.0,428.0 L615.0,18.1 L70.5,18.1 Z  '/></g>
<g fill="none" color="black" stroke="currentColor" stroke-width="1.00" stroke-linecap="butt" stroke-linejoin="miter">
</g>
	<g id="gnuplot_plot_1" ><title>pages+cached+noadtech</title>
<g fill="none" color="black" stroke="currentColor" stroke-width="1.00" stroke-linecap="butt" stroke-linejoin="miter">
	<g transform="translate(283.9,467.9)" stroke="none" fill="black" font-family="Arial" font-size="12.00"  text-anchor="end">
		<text><tspan font-family="Arial" >pages+cached+noadtech</tspan></text>
	</g>
</g>
<g fill="none" color="black" stroke="currentColor" stroke-width="1.00" stroke-linecap="butt" stroke-linejoin="miter">
	<path stroke='rgb(148,   0, 211)'  d='M292.2,464.0 L334.4,464.0 M70.5,397.0 L76.0,419.3 L81.5,419.3 L87.0,419.7 L92.5,396.0 L98.0,395.8
		L103.5,419.8 L109.0,419.8 L114.5,419.5 L120.0,419.5 L125.5,396.2 L131.0,396.3 L136.5,419.0 L142.0,419.4
		L147.5,419.4 L153.0,419.2 L158.5,395.8 L164.0,419.5 L169.5,396.3 L175.0,419.0 L180.5,419.8 L186.0,419.5
		L191.5,419.3 L197.0,419.9 L202.5,419.3 L208.0,419.3 L213.5,419.3 L219.0,419.3 L224.5,394.5 L230.0,396.2
		L235.5,420.1 L241.0,419.9 L246.5,419.9 L252.0,419.5 L257.5,419.8 L263.0,396.4 L268.5,419.0 L274.0,419.7
		L279.5,396.5 L285.0,396.3 L290.5,419.7 L296.0,396.3 L301.5,419.5 L307.0,396.2 L312.5,419.4 L318.0,396.3
		L323.5,419.3 L329.0,419.3 L334.5,396.5 L340.0,419.6 L345.5,419.2 L351.0,419.4 L356.5,419.3 L362.0,396.3
		L367.5,419.6 L373.0,396.0 L378.5,419.3 L384.0,419.5 L389.5,419.5 L395.0,418.8 L400.5,419.6 L406.0,419.2
		L411.5,396.6 L417.0,419.3 L422.5,419.3 L428.0,419.0 L433.5,419.3 L439.0,419.8 L444.5,419.7 L450.0,396.4
		L455.5,397.0 L461.0,396.6 L466.5,419.5 L472.0,419.3 L477.5,396.3 L483.0,419.3 L488.5,419.3 L494.0,419.6
		L499.5,396.4 L505.0,419.5 L510.5,396.2 L516.0,419.5 L521.5,396.3 L527.0,419.8 L532.5,396.4 L538.0,396.2
		L543.5,396.3 L549.0,419.2 L554.5,396.2 L560.0,419.9 L565.5,419.3 L571.0,419.2 L576.5,26.0 L582.0,419.5
		L587.5,394.4 L593.0,395.6 L598.5,419.8 L604.0,419.4 L609.5,419.4 L615.0,396.1  '/></g>
	</g>
	<g id="gnuplot_plot_2" ><title>pages+cached+noexternal</title>
<g fill="none" color="black" stroke="currentColor" stroke-width="1.00" stroke-linecap="butt" stroke-linejoin="miter">
	<g transform="translate(283.9,485.9)" stroke="none" fill="black" font-family="Arial" font-size="12.00"  text-anchor="end">
		<text><tspan font-family="Arial" >pages+cached+noexternal</tspan></text>
	</g>
</g>
<g fill="none" color="black" stroke="currentColor" stroke-width="1.00" stroke-linecap="butt" stroke-linejoin="miter">
	<path stroke='rgb(  0, 158, 115)'  d='M292.2,482.0 L334.4,482.0 M70.5,396.5 L76.0,417.3 L81.5,396.5 L87.0,419.4 L92.5,417.3 L98.0,417.2
		L103.5,419.4 L109.0,396.3 L114.5,394.3 L120.0,394.5 L125.5,396.2 L131.0,394.2 L136.5,417.2 L142.0,417.4
		L147.5,419.6 L153.0,419.9 L158.5,396.4 L164.0,393.8 L169.5,394.8 L175.0,396.1 L180.5,396.6 L186.0,393.9
		L191.5,417.3 L197.0,419.6 L202.5,396.4 L208.0,419.3 L213.5,396.4 L219.0,396.5 L224.5,396.1 L230.0,419.9
		L235.5,417.3 L241.0,419.3 L246.5,417.3 L252.0,419.5 L257.5,394.2 L263.0,419.4 L268.5,396.6 L274.0,417.2
		L279.5,417.4 L285.0,396.4 L290.5,417.6 L296.0,396.6 L301.5,419.4 L307.0,419.5 L312.5,417.7 L318.0,417.4
		L323.5,396.1 L329.0,419.7 L334.5,419.8 L340.0,417.4 L345.5,396.3 L351.0,396.3 L356.5,419.3 L362.0,394.5
		L367.5,396.1 L373.0,417.6 L378.5,396.2 L384.0,419.3 L389.5,394.3 L395.0,396.3 L400.5,419.5 L406.0,394.1
		L411.5,393.8 L417.0,419.1 L422.5,419.9 L428.0,394.4 L433.5,417.2 L439.0,396.2 L444.5,419.6 L450.0,396.6
		L455.5,417.6 L461.0,417.7 L466.5,396.4 L472.0,419.5 L477.5,419.4 L483.0,396.7 L488.5,394.1 L494.0,419.4
		L499.5,417.5 L505.0,417.3 L510.5,394.2 L516.0,394.4 L521.5,419.4 L527.0,417.7 L532.5,417.1 L538.0,394.6
		L543.5,417.4 L549.0,396.4 L554.5,419.5 L560.0,417.5 L565.5,419.4 L571.0,419.6 L576.5,419.5 L582.0,417.5
		L587.5,417.5 L593.0,419.5 L598.5,417.3 L604.0,396.4 L609.5,394.2 L615.0,417.3  '/></g>
	</g>
	<g id="gnuplot_plot_3" ><title>score p10=2500</title>
<g fill="none" color="black" stroke="currentColor" stroke-width="1.00" stroke-linecap="butt" stroke-linejoin="miter">
	<g transform="translate(533.6,467.9)" stroke="none" fill="black" font-family="Arial" font-size="12.00"  text-anchor="end">
		<text><tspan font-family="Arial" >score p10=2500</tspan></text>
	</g>
</g>
<g fill="none" color="black" stroke="currentColor" stroke-width="1.00" stroke-linecap="butt" stroke-linejoin="miter">
	<path stroke='rgb( 86, 180, 233)'  d='M541.9,464.0 L584.1,464.0  '/></g>
	</g>
	<g id="gnuplot_plot_4" ><title>score median=4000</title>
<g fill="none" color="black" stroke="currentColor" stroke-width="1.00" stroke-linecap="butt" stroke-linejoin="miter">
	<g transform="translate(533.6,485.9)" stroke="none" fill="black" font-family="Arial" font-size="12.00"  text-anchor="end">
		<text><tspan font-family="Arial" >score median=4000</tspan></text>
	</g>
</g>
<g fill="none" color="black" stroke="currentColor" stroke-width="1.00" stroke-linecap="butt" stroke-linejoin="miter">
	<path stroke='rgb(230, 159,   0)'  d='M541.9,482.0 L584.1,482.0  '/></g>
	</g>
<g fill="none" color="#FFFFFF" stroke="rgb(230, 159,   0)" stroke-width="2.00" stroke-linecap="butt" stroke-linejoin="miter">
</g>
<g fill="none" color="black" stroke="currentColor" stroke-width="2.00" stroke-linecap="butt" stroke-linejoin="miter">
</g>
<g fill="none" color="black" stroke="black" stroke-width="1.00" stroke-linecap="butt" stroke-linejoin="miter">
</g>
<g fill="none" color="black" stroke="currentColor" stroke-width="1.00" stroke-linecap="butt" stroke-linejoin="miter">
	<path stroke='black'  d='M70.5,18.1 L70.5,428.0 L615.0,428.0 L615.0,18.1 L70.5,18.1 Z  '/></g>
<g fill="none" color="black" stroke="currentColor" stroke-width="1.00" stroke-linecap="butt" stroke-linejoin="miter">
</g>
</g>
</svg>
